X: 82
T: Preludium B-dur
C: Maria Szymanowska
%%abc-version 2.0
%%abcx-abcm2ps-target-version 5.9.1 (29 Sep 2008)
%%abc-creator hum2abc beta
%%abcx-conversion-date 2021/10/04 07:38:40
%%abc-edited-by Anna Matuszewska
%%abcx-initial-encoding-date 2020-07-19
%%humdrum-veritas 1539706798
%%humdrum-veritas-data 794669224
%%linebreak <none>
%%barnumbers 0
L: 1/16
M: 6/8
N: Derived from pl-kozmzk--mzk-m-31--009_szymanowska-maria--preludium-b-dur.krn
%%staves {1 2}
V: 1 clef=treble
V: 2 clef=bass
K: Bb
[V:1] [D12F12d12] | 
[V:2] B,,C,^C,D,E,=E, F,=E,G,F,E,F, | 
[V:1] [F4c4f4]>-[F4c4f4]e2c2 | 
[V:2] A,,C,^C,D,E,=E, F,E,G,F,E,F, | 
[V:1] B4>!turn!B4c2d2 | 
[V:2] D,F,B,A,CB, DB,_EB,FB, | 
[V:1] B4>!turn!B4c2[_A2d2] | 
[V:2] DB,A,B,CB, A,B,_A,B,F,B, | 
[V:1] [G2e2][G4B4g4]-[G2B2g2][=B2f2][c2e2] | 
[V:2] E,G,B,=B,C^C DE=EF^FG | 
[V:1] [G2d2]cab^f gdeGd[Ec] | 
[V:2] E,=B,C^FGD EB,C2E,2 | 
[V:1] {/D}B12 | 
[V:2] F,F=E_EDC B,A,G,F,=E,_E, | 
[V:1] [F6c6]-[F4c4]z2 | 
[V:2] D,C,B,,A,,G,,F,, =E,,F,,G,,F,,_E,,C,, | 
[V:1] {/D}[F12d12] | 
[V:2] B,,, C,^C,D,E,=E, F,E,G,F,E,F, | 
[V:1] [B6e6][B6d6] | 
[V:2] G,B,_EDFE F,B,D^CED | 
[V:1] [G6c6][_A6=B6] | 
[V:2] E,G,=C=B,DC F,_A,=B,DCB, | 
[V:1] [G6c6][B6^c6g6] | 
[V:2] E,G,C=B,DC =E,_B,^CGF=E | 
[V:1] {/d}[f12b12d'12] | 
[V:2] [K:clef=treble]FdcBAG F=E_EDCB,[K:clef=bass] | 
[V:1] [e12f12c'12] | 
[V:2] A,G,F,=E,_E,D, C,B,,A,,G,,F,,A,, | 
[V:1] [dfb] x x2 x DFAB dfa |[1 
[V:2] B,, D,F,A,B, x x2x4 | 
[V:1] b f=e_edc BAGF=E_E & x z z2x8 :|][2 
[V:2] x4x2z4z2 :|]  
[V:1] b ^c'd'a=c'b ^fag^ced & x z z2x8 ]|: 
[V:2] x4x2z4z2 ]|:  
[V:1] Ae'd'^c'=c'b ag^fed^c | 
[V:2] [D,,4D,4]z2[K:clef=treble][D4A4c4]z2[K:clef=bass] | 
[V:1] edA=cB^F AG^CEDB, | 
[V:2] !wedge![G,,4G,4]z2[G,4B,4D4]z2 | 
[V:1] _A, CEG_Ac eg_ac'd'e' | 
[V:2] [C,,4C,4]z2[C,4E,4_A,4]z2 | 
[V:1] d'^c'=c'b=ag ^fedcBA | 
[V:2] [D,,2D,2] z2[D,4=A,4C4]z4 | 
[V:1] [G12B12g12] | 
[V:2] E,F,^F,G,_A,=A, B,A,CB,A,B,[K:clef=treble] | 
[V:1] [e6_a6][e6g6] | 
[V:2] CE_AGBA B,EG^F_AG | 
[V:1] [c4f4]z2!accent![_d4=e4]z2 | 
[V:2] _A,CF=EGF B,_D=EGFE | 
[V:1] [c6f6][e6_g6c'6] | 
[V:2] _A,CF=EGF =A,_E_GcBA | 
[V:1] [e12=g12b12] | 
[V:2] BA_AGFE DCB,A,_A,G,[K:clef=bass] | 
[V:1] [e6f6b6][d4f4b4]z2 | 
[V:2] F,E,D,C,B,,=A,, B,,C,B,,G,,_A,,F,, | 
[V:1] GBeBge[F6=A6f6] | 
[V:2] E,,4z2 E,A,CA,EC | 
[V:1] FBdBfd[E6_G6e6] | 
[V:2] [D,4D4]z2 A,,E,_G,E,CG, | 
[V:1] DFBFdB[B,6_D6B6] | 
[V:2] [B,,4B,4]z2 =E,,B,,_D,B,,G,D, | 
[V:1] B,=DFDBF[C4E4A4]F2 | 
[V:2] F,,4z2 =E,,F,,^F,,G,,^G,,A,, | 
[V:1] [D12F12d12] | 
[V:2] B,,C,^C,D,E,=E, F,E,G,F,E,F, | 
[V:1] [F4c4f4]>-[F4c4f4]e2c2 | 
[V:2] A,,C,^C,D,E,=E, F,E,G,F,E,F, | 
[V:1] B4>!turn!B4c2d2 | 
[V:2] D,F,B,A,CB, DB,_EB,FB, | 
[V:1] B4>!turn!B4c2[_A2d2] | 
[V:2] DB,A,B,CB, A,B,_A,B,F,B, | 
[V:1] [G2e2]!accent![G4d4g4]-[G2d2g2][=B2f2][c2e2] | 
[V:2] E,G,B,=B,C^C DE=EF^FG | 
[V:1] [G2d2]!wedge!cab!wedge!^f gdeGd[Ec] | 
[V:2] E,=B,C^FGD E=B,C2E,2 | 
[V:1] {/D}B12 | 
[V:2] F,F=E_EDC B,A,G,F,=E,_E, | 
[V:1] [F6c6]-[F4c4]z2 | 
[V:2] D,C,B,,A,,G,,F,, =E,,F,,G,,F,,_E,,C,, | 
[V:1] {/D}[F12d12] | 
[V:2] B,,, C,^C,D,E,=E, F,E,G,F,E,F, | 
[V:1] [B6_e6][B6d6] | 
[V:2] G,B,_EDFE F,B,D^CED | 
[V:1] [G6c6][_A6=B6] | 
[V:2] E,G,CB,DC F,_A,=B,DCB, | 
[V:1] [G6c6][_B6^c6g6] | 
[V:2] E,G,C=B,DC =E,_B,^CGF=E[K:clef=treble] | 
[V:1] {/d}[f12b12d'12] | 
[V:2] FdcBAG F=E_EDCB, | 
[V:1] [_e12f12c'12] | 
[V:2] [K:clef=bass]A,G,F,=E,_E,D, C,B,,A,,G,,F,,A,, | 
[V:1] [dfb] x x2 x DFAB dfa |[1 
[V:2] B,, D,F,A,B, x x2x4 | 
[V:1] b ^c'd'a=c'b ^fag^ced & x z z2x8 :|][2 
[V:2] x4x2z4z2 :|]  
[V:1] b f=e_edc BAGF=EF & x z z2x8 | 
[V:2] x4x2z4z2 | 
[V:1] [E8F8A8]z4 | 
[V:2] F,G,^G,A,B,=B, CB,DCA,F, | 
[V:1] [F8B8d8]z4 | 
[V:2] B,C^CDE=E FEGFDB, | 
[V:1] G=Bcde^f g^fgde=B | 
[V:2] _EDE=B,CD EDE=B,CD | 
[V:1] c ab^fga b^fgab^f | 
[V:2] E ^FGDEF GDEFGD | 
[V:1] g ^FGced {/d} c=BcGed | 
[V:2] E6EDEE,GF | 
[V:1] c ab^fgd =fe[dG]e[cE]d & x ^fgde=B c2E2E,2 | 
[V:2] E x x2x8 | 
[V:1] [D4B4]z2!arpeggio![d4f4b4d'4]z2 | 
[V:2] F,[K:clef=treble] dcBAG F=E_EDCB,[K:clef=bass] | 
[V:1] !arpeggio![c4e4f4c'4]z2!arpeggio![f4a4c'4f'4]z2 | 
[V:2] A,G,F,=E,_E,D, C,B,,A,,G,,F,,A,, | 
[V:1] [D12F12B12d12] | 
[V:2] B,,C,^C,D,E,=E, F,E,G,F,E,F, | 
[V:1] [F6c6f6]-[F4c4f4]z2 | 
[V:2] A,,C,^C,D,E,=E, F,E,G,F,E,_E, | 
[V:1] {/f} f'=e'_e'd'c'b ag^f=f=e_e | 
[V:2] D,4z2[^F,4A,4E4]z2 | 
[V:1] d^c=cBAG ^FEDCB,A, | 
[V:2] [G,4B,4D4]z2[D,4A,4C4]z2 | 
[V:1] G,=B,CDE^F GAB=Bdc | 
[V:2] [E,,4E,4]z2[E,4G,4C4]z2 | 
[V:1] BAf=e_ecB4z2 | 
[V:2] [F,,4F,4][F,2A,2E2][B,4D4]z2[K:clef=treble] | 
[V:1] ac'e'g'f'ab4z2 | 
[V:2] [F6c6e6][B4d4]z2[K:clef=bass] | 
[V:1] [C4E4A4]F2[B,4D4B4]z2 | 
[V:2] =E,,F,,^F,,G,,^G,,A,,B,,4z2 | 
[V:1] (3:2:6=EF^FG^GA(3B=Bc (3:2:6^cde=ef^f(3g^ga | 
[V:2] [C4E4]F,2[B,4D4]F,2 | 
[V:1] b/=b/c'/^c'/d'/e'/=e'/f'/^f'/g'/^g'/a'/b'4z2 | 
[V:2] [C4E4F4]F,2[B,4D4]z2 | 
[V:1] [F4A4c4f4]z2!fermata![D6F6B6d6] |]  
[V:2] [F,,4F,4]z2!fermata![B,,6B,6] |]  


